packages/icons/svg/Fill/monitor.svg

<svg fill="none" height="24" viewBox="0 0 24 24" width="24" xmlns="http://www.w3.org/2000/svg"><path clip-rule="evenodd" d="m5.00003 3h13.99997c1.654 0 3 1.346 3 3v5h-19.99997v-5c0-1.654 1.346-3 3-3zm0 13.9999c-1.654 0-3-1.346-3-3v-1h19.99997v1c0 1.654-1.346 3-3 3h-6v2h4c.55 0 1 .45 1 1s-.45 1-1 1h-9.99997c-.55 0-1-.45-1-1s.45-1 1-1h3.99997v-2z" fill="#6b7280" fill-rule="evenodd"/></svg>

<svg width="24" height="24" viewBox="0 0 24 24" fill="none" xmlns="http://www.w3.org/2000/svg">
<g id="Icon/Fill/monitor">
<path id="Mask" fill-rule="evenodd" clip-rule="evenodd" d="M5 3H19C20.654 3 22 4.346 22 6V11H2V6C2 4.346 3.346 3 5 3ZM5 17C3.346 17 2 15.654 2 14V13H22V14C22 15.654 20.654 17 19 17H13V19H17C17.55 19 18 19.45 18 20C18 20.55 17.55 21 17 21H7C6.45 21 6 20.55 6 20C6 19.45 6.45 19 7 19H11V17H5Z" fill="#000000"/>
</g>
</svg>
